!!!CDT:
!!!PTL: Il primo libro de madrigali a sei voci
!!!PPP: Venice
!!!PPR: Angelo Gardano
!!!PDT: 1590
!!!PUB-format:
!!!RISM: M 1503
!!!rime: 376
!!!AGN: Madrigal
!!!SCT: Trm0376d
!!!SCA: Trm0376d
!!!original-voices: 6
!!!extant-voices: 2
!!!complete: N
!!!final: G
!!!COM: Mazza, Francesco
!!!OTL: Dolcemente dormiva la mia Clori
**kern	**text	**kern	**text
*part2	*part2	*part1	*part1
*staff2	*staff2	*staff1	*staff1
*I"Quinto	*	*I"Tenore	*
*I'V	*	*I'T	*
*oclefC4	*	*oclefC4	*
*clefGv2	*	*clefGv2	*
*k[b-]	*	*k[b-]	*
*omet(C)	*	*omet(C)	*
*M4/2	*	*M4/2	*
=1	=1	=1	=1
2r	.	0r	.
2.G	Dol-	.	.
4G	-ce-	.	.
2G	-men-	.	.
=2	=2	=2	=2
2A	-te	0r	.
2A	dor-	.	.
1c	-mi-	.	.
=3	=3	=3	=3
1c	-va	0r	.
1d	la	.	.
=4	=4	=4	=4
2d	mia	1r	.
2c	Clo-	.	.
4B-y	-ri	4r	.
4f	E'n	4B-y	E'n-
4f	tor-	4F	-tor-
4d	-no al	4G	-no al
=5	=5	=5	=5
4d	suo	4D	suo
4d	bel	4G	bel
4f	vol-	4F	vol-
8f	-to,	4BB-y	-to,
8d	E'n	.	.
4c	tor-	1r	.
4B-y	-no al	.	.
4A	suo	.	.
4B-y	bel	.	.
=6	=6	=6	=6
4c	vol-	4r	.
8d	-to,	4f	E'n-
8B-y	<E'n	.	.
4A	tor-	4f	-tor-
4B-y	-no al	4d	.
4D	suo	4d	-suo
4G	bel	4d	bel
2F	vol-	2f	vol-
=7	=7	=7	=7
2F	-to	2f	-to
2r	.	2r	.
2r	.	2r	.
4A	Gi-	4c	Gi-
8G	-van	8c	-van
8A	scher-	8c	scher-
=8	=8	=8	=8
4B-y	-zan-	4d	-zan-
4B-y	-do,	4d	-do,
2r	.	2r	.
4F	<Gi-	4d	<Gi-
8F	-van	8d	-van
8F	scher-	8d	scher-
2F	-zan-	2c	-zan-
=9	=9	=9	=9
2F	-do> i	2B-y	-do> i
4G	par-	4B-y	par-
4G	-go-	4e-X	-go-
4G	-let-	4e-i	-let-
4G	-ti a	4d	-ti a-
2A	mo-	2d	-mo-
=10	=10	=10	=10
1G	-ri.	2d	-ri.
.	.	4r	.
.	.	4BnX	Mi-
1r	.	2Bni	-ra-
.	.	[2c	-v'io,
=11	=11	=11	=11
1r	.	4c]	.
.	.	2f	da
.	.	4d	me
2r	.	4d	tol-
.	.	4d	-to,
4r	.	2r	.
4D	Mi-	.	.
=12	=12	=12	=12
2D	-ra-	0r	.
2.C	-v'io,	.	.
2F	da	.	.
4G	me	.	.
=13	=13	=13	=13
2A	tol-	1r	.
2A	-to,	.	.
1r	.	2r	.
.	.	4r	.
.	.	4A	Con
=14	=14	=14	=14
2r	.	4G	gran
.	.	4F#X	di-
4r	.	4G	-let-
4A	Con	4D	-to,
4G	gran	2r	.
4F#X	di-	.	.
4G	-let-	4r	.
4D	-to,	4D	Con
=15	=15	=15	=15
4r	.	4G	gran
4D	Con	4G	di-
2.G	gran	4.G	-let-
.	.	8FnXi	.
.	.	4E	.
4G	di-	4D	-to
4E	-let-	[2A	le-
4D	-to	.	.
=16	=16	=16	=16
2E	le-	2A]	.
2D	-i	2A	-i,
2r	.	1r	.
[2d	Quan-	.	.
=17	=17	=17	=17
4d]	.	1r	.
4c	.	.	.
1B-y	.	.	.
.	.	2r	.
2F	-do,	[2B-y	Quan-
=18	=18	=18	=18
2.D	Quan-	4B-]	.
.	.	8AL	.
.	.	8GJ	.
.	.	2F	.
4E	.	.	.
2.F	.	2F	-do,
.	.	2r	.
4G	.	.	.
=19	=19	=19	=19
1A	.	2.F	Quan-
.	.	4E	.
1B-y	-do	2D	.
.	.	2d	-do
=20	=20	=20	=20
2r	.	4r	.
.	.	4d	dir
4r	.	4d	mi
4G	dir	4B-y	sen-
4F#X	mi	4A	-tì,
4G	sen-	4r	.
4D	-tì,	4r	.
4r	.	4G	<dir
=21	=21	=21	=21
4r	.	4F#X	mi
4G	<dir	4G	sen-
4A	mi	2D	-tì:>
4A	sen-	.	.
2B-y	-tì:>	1r	.
4.G	"Stol-	.	.
8A	.	.	.
=22	=22	=22	=22
2B-y	.	2r	.
2BB-y	-to,	2d	"Stol-
2r	.	4A	-to,
.	.	4c	che
4r	.	[2c	fa-
4A	che	.	.
=23	=23	=23	=23
2A	fa-	2c]	.
2A	-i,	2c	-i,
4r	.	4r	.
4c	<che	4A	che
2c	fa-	4.A	fa-
.	.	8B-y	.
=24	=24	=24	=24
1A	-i?>	2c	.
.	.	2c	-i?
4r	.	1r	.
4B-y	Tem-	.	.
4B-y	-po	.	.
4d	per-	.	.
=25	=25	=25	=25
4.c	-du-	0r	.
8A	-to	.	.
4.B-y	non	.	.
8G	s'ac-	.	.
4.A	-qui-	.	.
8F	-sta	.	.
2G	ma-	.	.
=26	=26	=26	=26
4C	-i,	1r	.
4c	Tem-	.	.
4B-y	-po	.	.
4A	per-	.	.
2G	-du-	2r	.
2F	-to	4r	.
.	.	4c	Tem-
=27	=27	=27	=27
1r	.	4c	-po
.	.	4c	per-
.	.	4.f	-du-
.	.	8f	-to
2r	.	4f	non
.	.	4f	s'ac-
4r	.	[2d	-qui-
[4G	non	.	.
=28	=28	=28	=28
4G]	.	4d]	.
4G	s'ac-	4d	-sta
4D	-qui-	2d	ma-
4B-y	-sta	.	.
2A	ma-	2D	-i."
2G	-i."	4r	.
.	.	4G	Al-
=29	=29	=29	=29
4r	.	8GL	-l'ho-
.	.	8A	.
4G	Al-	8B-y	.
.	.	8cJ	.
8GL	-l'ho-	2d	.
8A	.	.	.
8B-y	.	.	.
8cJ	.	.	.
2.d	.	4B-y	-r'io
.	.	2B-y	mi
4B-y	-r'io	4F	chi-
=30	=30	=30	=30
4B-y	mi	1F	-nai
4B-y	chi-	.	.
1B-y	-nai	.	.
.	.	1F	co-
[2F	co-	.	.
=31	=31	=31	=31
2F]	.	2A	-sì,
1F	-sì	4r	.
.	.	4A	co-
.	.	2.B-y	-sì
2E	pian	.	.
.	.	4G	pian
=32	=32	=32	=32
1F	pia-	1c	pia-
1F	-no,	1A	-no,
=33	=33	=33	=33
4r	.	2A	Al-
4c	Al-	.	.
2.c	-l'ho-	2.A	-l'ho-
4B-y	-r'io	4F	-r'io
4B-y	mi	4F	mi
4F	chi-	4F	chi-
=34	=34	=34	=34
4.F	.	1B-y	-nai
8E	.	.	.
1D	-nai	.	.
.	.	2F	co-
2d	co	[2F	-sì
=35	=35	=35	=35
1.d	sì	2F]	.
.	.	2G	pian
.	.	2A	pia-
2d	pian	2D	-no,
=36	=36	=36	=36
1d	pia-	0r	.
1A	-no,	.	.
!!LO:TX:a:cj:t=[whole] &rarr; [whole-dot]
=37	=37	=37	=37
*M6/2	*	*M6/2	*
*omet(C.3/2)	*	*omet(C.3/2)	*
1c	E	1G	E
2c	ba-	2c	ba-
2.c	-cian-	2.A	-cian-
4c	-do-	4A	-do-
2c	-l'il	2F	-l'il
=38	=38	=38	=38
1d	vi-	1B-y	vi-
2B-y	-so,	2F	-so,
1.r	.	1B-y	<E
.	.	2B-y	ba-
=39	=39	=39	=39
1%3r	.	2.G	-cian-
.	.	4G	-do-
.	.	2G	-l'il
.	.	1A	vi-
.	.	2F	-so>
=40	=40	=40	=40
1c	<E	1%3r	.
2c	ba-	.	.
2.BnX	-cian-	.	.
4c	-do-	.	.
2BnX	-l'il	.	.
!!LO:TX:a:cj:t=[whole-dot] &rarr; [whole]
=41	=41	=41	=41
*M4/2	*	*M4/2	*
*omet(C)	*	*omet(C)	*
2c	vi-	1r	.
4G	-so>	.	.
4G	Pro-	.	.
2.B-i	.	4r	.
.	.	4B-y	Pro-
.	.	[2B-y	-vai
8AL	.	.	.
8GJ	.	.	.
=42	=42	=42	=42
1F	-vai,	4B-]	.
.	.	4B-y	quan-
.	.	4B-y	-ta
.	.	4F	dol-
1r	.	2.c	-cez-
.	.	4G	-z'ha'l
=43	=43	=43	=43
2r	.	4d	pa-
.	.	4d	-ra-
4r	.	2d	-di-
4D	Pro-	.	.
2.G	-vai	4d	-so,
.	.	4B-y	Pro-
.	.	2B-y	-vai
4B-y	quan-	.	.
=44	=44	=44	=44
4B-y	-ta	4r	.
4c	dol-	4c	quan-
2c	-cez-	4A	-ta
.	.	4A	dol-
2B-y	-za,	4d	-cez-
.	.	4G	-za,
2r	.	2r	.
=45	=45	=45	=45
4r	.	1r	.
4A	Pro-	.	.
2.A	-vai	.	.
.	.	4r	.
4D	quan-	4A	Pro-
4D	-ta	[2B-y	-vai
4D	dol-	.	.
=46	=46	=46	=46
2F	-cez-	4B-]	.
.	.	4B-y	quan-
2BB-y	-za,	4B-y	-ta
.	.	4B-y	dol-
2r	.	2G	-cez-
2B-y	Pro-	2G	-za
=47	=47	=47	=47
2.A	-vai	2r	.
.	.	2F	ha'l
4F	quan-	.	.
4F	-ta	4B-y	pa-
4F	dol-	4B-y	-ra-
[2F	-cez-	2c	-di-
=48	=48	=48	=48
4F]	.	2d	-so,
4G	-z'ha'l	.	.
4A	pa-	2r	.
4D	-ra-	.	.
2G	-di-	1r	.
2G	-so,	.	.
!!LO:TX:a:cj:t=[whole] &rarr; [whole-dot]
=49	=49	=49	=49
*M6/2	*	*M6/2	*
*omet(C.3/2)	*	*omet(C.3/2)	*
1G	E	1B-y	E
2c	ba-	2c	ba-
2.A	-cian-	2.c	-cian-
4A	-do-	4c	-do-
2c	-l'il	2A	-l'il
!!LO:TX:a:cj:t=[whole-dot] &rarr; [whole]
=50	=50	=50	=50
*M4/2	*	*M4/2	*
*omet(C)	*	*omet(C)	*
2B-y	vi-	2d	vi-
4B-y	-so	4d	-so
4F	Pro-	4B-y	Pro-
2.F	-vai	2.B-y	-vai
4D	quan-	4B-y	quan-
=51	=51	=51	=51
4D	-ta	4B-y	-ta
4D	dol-	4F	dol-
2G	-cez-	2.c	-cez-
4C	-za,	.	.
4c	Pro-	4G	-za
2A	-vai	2r	.
=52	=52	=52	=52
2B-y	quan-	2r	.
4A	-ta	2D	ha'l
4d	dol-	.	.
1d	-cez-	[1D	pa-
=53	=53	=53	=53
2d	-za	2D]	.
4r	.	2D	-ra-
4D	ha'l	.	.
4F#X	pa-	1D	-di-
4G	-ra-	.	.
2A	-di-	.	.
=54	=54	=54	=54
0Gl	-so.	0Dl	-so.
==	==	==	==
*-	*-	*-	*-
!!!system-decoration: [*]
!!!RDF**kern: i = editorial accidental
!!!RDF**kern: l = terminal long
!!!ENC: Emiliano Ricciardi
!!!END: 2018
!!!EED: Ricciardi, Emiliano
!!!EEV: 2018/09/18
!!!YEC: Copyright 2018 Emiliano Ricciardi, All Rights Reserved
!!!ONB: Translated from MusicXML on 2018/09/18 and edited by Craig Stuart Sapp
!!@@BEGIN:	VERSEDATA
!!@SOLERTI:	376
!!@CATALOGNUM:	Trm0376
!!@LAST_MODIFIED: 2020/07/12
!!@ATTRIBUTION: 	not secure
!!@TITLE:		Dolcemente dormiva la mia Clori
!!@GENRE:		madrigale
!!@MANUSRC:	none
!!@PRINTSRC:	27, 70, 141, 145, 166, 169
!!@@BEGIN:	VERSES
!!@ABOUTIT:
!!@ABOUTEN:
!!@EDITOR:	Solerti, Angelo
!!@EDITION_TITLE: Le Rime di Torquato Tasso
!!@EDITION_LOC:	Bologna
!!@EDITION_PUB:	Romagnoli-Dall’Acqua
!!@EDITION_DATE:  1898-1902
!!@EDITION_VOL:	2
!!@EDITION_PAGE:  412
!!@TRANSLATOR:	Emiliano Ricciardi and Amyrose McCue Gill
!!@VERSE:
!!	Dolcemente dormiva la mia Clori
!!	E 'ntorno al suo bel volto
!!	Givan scherzando i pargoletti Amori.
!!	Mirav'io, da me tolto,
!!	Con gran diletto lei,
!!	Quando dir mi sentii &mdash; Stolto, che fai?
!!	Tempo perduto non s'acquista mai. &mdash;
!!	Allor io mi chinai così pian piano,
!!	E baciandole il viso
!!	Provai quanta dolcezza ha il paradiso.
!!@TVERSE:
!!	Sweetly was my Chloris sleeping
!!	And around her beautiful face
!!	Flew, playing, little love cherubs.
!!	I was watching her, stolen from myself,
!!	With great pleasure,
!!	When I heard myself say: &mdash; Fool, what are you doing?
!!	Time lost is never regained. &mdash;
!!	Thus I bent down, ever so slowly,
!!	And kissing her face
!!	Tasted as much sweetness as Heaven holds.
!!@@END:		VERSES
!!@OTHER_CRIT_ED:   None
!!@ATTRIBUTION_ABOUT:	Not secure
!!		<br>
!!		This poem is attributed to Tasso only in a literary print that was not supervised by Tasso and in reprints thereof (see Literary Sources).
!!@DATING:	In or before 1586
!!		<br>
!!		The earliest appearance of this poem in a literary print published in 1586 by Giulio Vasalini (see Literary Sources).
!!@DEDICATEE:
!!@COMMENTARY:
!!@@END:		VERSEDATA
!!@@BEGIN:	SETTING
!!@CATALOGNUM:	Trm0376d
!!@RIMETITLE:	Dolcemente dormiva la mia Clori
!!@SOLERTI:	376
!!@COMPOSER:	Mazza, Francesco
!!@PRINCEPSTITLE:	Il primo libro de madrigali a sei voci
!!@PRINCEPSLOC:	Venetia
!!@NORMLOC:	Venice
!!@NORMPUB:	Angelo Gardano
!!@NORMPUBSHORT:	Gardano
!!@PRINCEPSPUB:	Gardano
!!@PRINCEPSYEAR:	1590
!!@PRINCEPSRISM:	M 1503
!!@REPRINTS:	
!!@OVOICES:	6
!!@EXTANTVOICES:	2
!!@PARTBOOKS:	
!!@EXTPARTBOOKS:	
!!@OCLEFS:	C4,C4
!!@OMENSURATION:	C; C-dot 3/2; C; C-dot 3/2; C
!!@OKEYSIG:	b-
!!@FINAL:	G
!!@TIMPEDITOR:	Ricciardi, Emiliano
!!@NOTE:		
!!@@END:		SETTING
